X:115
T:Foxhunter's
Z: id:dc-reel-107
M:C
L:1/8
K:G Major
d2BG dGBG|dGBG AGEG|d2BG dGBG|GABG AGEG:|!
D3B BAGE|D2BG AGEG|D3B BABG|AcBG AGEG:|!
gedB G2Bd|gdBd eAA2|gedB GBdB|ABcd eAA2:|!
dggf g3e|dgg2 egdB|dggf g3d|egdB AGAB:|!
G2BG dGBA|GBB2 AGAB|G2BG dGBd|egdB AGAB:|!

